X: 97
T:Italian Momfreda. JC.097
M:6/8
L:1/8
Q:120
S:John Clare,Poet,Helpston. (1793-1864)
R:Jig
O:England
A:Northamptonshire
N:
Z:vmp.P. Headford
K:A
E|ABc cdB|BAAA2e|(eG)G GAB|BAAA2:|!
|a|agbb2e|dcee2a|agbb2e|dcee2a|!
aga aga|fga agf|efe dcB|BAAA2|]
W:MS includes Dance Instructions.|
